usr/share/icons/biglinux-icons-material/24/actions/kdenlive-hide-video.svg

<svg xmlns="http://www.w3.org/2000/svg" viewBox="0 0 24 24"><path d="M3 3v14l1-1 1-1H4v-1h1v1l1-1v-2h2l2.1-2.1H6V4h10l1-1H3zm15.293 0L3 18.293l.707.707L19 3.707 18.293 3zM4 5h1v1H4V5zm15 0-1 1-1 1h1v1h-1V7l-1 1v1.9h-1.9L12 12h4v6H6l-1 1h14V5zM4 7h1v1H4V7zm0 2h1v1H4V9zm13 .1h1v1h-1v-1zM4 12h1v1H4v-1zm13 0h1v1h-1v-1zm0 2h1v1h-1v-1zm0 2h1v1h-1v-1z" style="fill:currentColor;fill-opacity:1;stroke:none;color:#dedede" transform="translate(1 1)"/></svg>

<svg xmlns="http://www.w3.org/2000/svg" viewBox="0 0 24 24">
  <defs id="defs3051">
    <style type="text/css" id="current-color-scheme">
      .ColorScheme-Text {
        color:#363636;
      }
      </style>
  </defs><g transform="translate(1,1)">
 <path 
     style="fill:currentColor;fill-opacity:1;stroke:none" 
     d="M 3 3 L 3 17 L 4 16 L 5 15 L 4 15 L 4 14 L 5 14 L 5 15 L 6 14 L 6 12 L 8 12 L 10.099609 9.9003906 L 6 9.9003906 L 6 4 L 16 4 L 17 3 L 3 3 z M 18.292969 3 L 3 18.292969 L 3.7070312 19 L 19 3.7070312 L 18.292969 3 z M 4 5 L 5 5 L 5 6 L 4 6 L 4 5 z M 19 5 L 18 6 L 17 7 L 18 7 L 18 8 L 17 8 L 17 7 L 16 8 L 16 9.9003906 L 14.099609 9.9003906 L 12 12 L 16 12 L 16 18 L 6 18 L 5 19 L 19 19 L 19 5 z M 4 7 L 5 7 L 5 8 L 4 8 L 4 7 z M 4 9 L 5 9 L 5 10 L 4 10 L 4 9 z M 17 9.0996094 L 18 9.0996094 L 18 10.099609 L 17 10.099609 L 17 9.0996094 z M 4 12 L 5 12 L 5 13 L 4 13 L 4 12 z M 17 12 L 18 12 L 18 13 L 17 13 L 17 12 z M 17 14 L 18 14 L 18 15 L 17 15 L 17 14 z M 17 16 L 18 16 L 18 17 L 17 17 L 17 16 z "
     class="ColorScheme-Text"
     />
</g></svg>
